assets/icons/custom/custom87.svg

<?xml version="1.0"?><svg xmlns="http://www.w3.org/2000/svg" width="100" height="100" viewBox="0 0 100 100"><g fill="#fff"><path d="m75 20h-50c-1.7 0-3 1.3-3 3v48c0 1.7 1.3 3 3 3h1v3c0 1.7 1.3 3 3 3h2c1.7 0 3-1.3 3-3v-3h32v3c0 1.7 1.3 3 3 3h2c1.7 0 3-1.3 3-3v-3h1c1.7 0 3-1.3 3-3v-48c0-1.7-1.3-3-3-3z m-44 48c-1.7 0-3-1.3-3-3v-36c0-1.7 1.3-3 3-3h38c1.7 0 3 1.3 3 3v36c0 1.7-1.3 3-3 3h-38z m33-36h-28c-1.1 0-2 0.9-2 2v26c0 1.1 0.9 2 2 2h28c1.1 0 2-0.9 2-2v-26c0-1.1-0.9-2-2-2z m-4.7 18h-8.3c-1.1 2-3.4 4-6.2 4-3.8 0-6.8-3.2-6.8-7s3-7 6.8-7c2.8 0 5.2 2 6.2 4h8.2c1.5 0 2.7 1.5 2.7 3s-1.1 3-2.6 3z"></path></g></svg>

<svg xmlns="http://www.w3.org/2000/svg" x="0px" y="0px"
	 width="100px" height="100px" viewBox="0 0 100 100" enable-background="new 0 0 100 100" xml:space="preserve">
<g>
	<path fill="#FFFFFF" d="M75,20H25c-1.7,0-3,1.3-3,3v48c0,1.7,1.3,3,3,3h1v3c0,1.7,1.3,3,3,3h2c1.7,0,3-1.3,3-3v-3h32v3
		c0,1.7,1.3,3,3,3h2c1.7,0,3-1.3,3-3v-3h1c1.7,0,3-1.3,3-3V23C78,21.3,76.7,20,75,20z M31,68c-1.7,0-3-1.3-3-3V29c0-1.7,1.3-3,3-3
		h38c1.7,0,3,1.3,3,3v36c0,1.7-1.3,3-3,3H31z"/>
	<path fill="#FFFFFF" d="M64,32H36c-1.1,0-2,0.9-2,2v26c0,1.1,0.9,2,2,2h28c1.1,0,2-0.9,2-2V34C66,32.9,65.1,32,64,32z M59.3,50H51
		c-1.1,2-3.4,4-6.2,4C41,54,38,50.8,38,47s3-7,6.8-7c2.8,0,5.2,2,6.2,4h8.2c1.5,0,2.7,1.5,2.7,3S60.8,50,59.3,50z"/>
</g>
</svg>
